actions/22x22-light/im-aim.svg

<svg xmlns="http://www.w3.org/2000/svg" viewBox="0 0 22 22">
 <defs id="defs3051">
   <style type="text/css" id="current-color-scheme">
     .ColorScheme-Text {
       color:#4d4d4d;
     }
     </style>
 </defs>
   <path
      style="fill:currentColor;fill-opacity:1;stroke:none"
      d="m11 3a8 8 0 0 0 -8 8 8 8 0 0 0 8 8 8 8 0 0 0 8-8 8 8 0 0 0 -8-8zm3.181641 5.3007812h.783203v4.9062498h-.783203zm-7.0781254.3007813h.6953125l1.9785157 4.6054685h-.9335938l-.4277344-1.050781h-1.9882812l-.4179688 1.050781h-.9082031zm.3144532.9824219c-.06544.2301-.1384032.4438646-.2207032.6464846l-.4941406 1.220703h1.4277344l-.4960938-1.242188c-.0781-.19631-.1513968-.4033596-.2167968-.6249996zm4.3476562.40625c.25964 0 .49923.0443596.71875.1308596.22163.08656.412149.219007.568359.398437.15619.17941.268191.386774.337891.621094.0443.14772.066406.346476.066406.597656 0 .12455-.028937.286102-.085937.482422-.05489.19416-.155141.37243-.300782.537109-.143529.164611-.323438.297285-.542968.396485-.2174.09715-.482532.146484-.794922.146484-.50027 0-.904878-.154847-1.210938-.460937-.30607-.30603-.458984-.705259-.458984-1.199219 0-.49814.164861-.897516.494141-1.197266.32928-.30181.731954-.4531246 1.208984-.4531246zm0 .6914066c-.26173 0-.479264.090121-.652344.269531-.17313.17731-.257812.411678-.257812.705078 0 .29342.08324.529721.25.707031.16886.17513.379355.263672.634765.263672.18364 0 .346705-.046212.490235-.132812.14565-.08651.256325-.200064.328125-.345703.07176-.145651.105468-.302127.105468-.466797 0-.28706-.074582-.524914-.226562-.714844-.14987-.19004-.374245-.285156-.671875-.285156zm4.617187 1.533203c.14354 0 .264082.04908.363282.15039.10135.10132.152344.223658.152344.367188 0 .14142-.051034.263924-.152344.365234-.10132.10135-.221851.152344-.363282.152344-.143529 0-.265867-.051191-.367187-.150391-.10135-.10132-.152344-.223657-.152344-.367187 0-.14354.049238-.265878.148438-.367188.10133-.10131.225453-.15039.371093-.15039z"
      class="ColorScheme-Text" />
</svg>

<svg xmlns="http://www.w3.org/2000/svg" viewBox="0 0 22 22">
  <defs id="defs3051">
    <style type="text/css" id="current-color-scheme">
      .ColorScheme-Text {
        color:#4d4d4d
      }
      </style>
  </defs>
 <path 
     style="fill:currentColor;fill-opacity:1;stroke:none"      
	 class="ColorScheme-Text"
        d="M 11 3 A 8 8 0 0 0 3 11 A 8 8 0 0 0 11 19 A 8 8 0 0 0 19 11 A 8 8 0 0 0 11 3 z M 14.181641 8.3007812 L 14.964844 8.3007812 L 14.964844 13.207031 L 14.181641 13.207031 L 14.181641 8.3007812 z M 7.1035156 8.6015625 L 7.7988281 8.6015625 L 9.7773438 13.207031 L 8.84375 13.207031 L 8.4160156 12.15625 L 6.4277344 12.15625 L 6.0097656 13.207031 L 5.1015625 13.207031 L 7.1035156 8.6015625 z M 7.4179688 9.5839844 C 7.3525288 9.8140844 7.2795656 10.027849 7.1972656 10.230469 L 6.703125 11.451172 L 8.1308594 11.451172 L 7.6347656 10.208984 C 7.5566656 10.012674 7.4833688 9.8056244 7.4179688 9.5839844 z M 11.765625 9.9902344 C 12.025265 9.9902344 12.264855 10.034594 12.484375 10.121094 C 12.706005 10.207654 12.896524 10.340101 13.052734 10.519531 C 13.208924 10.698941 13.320925 10.906305 13.390625 11.140625 C 13.434925 11.288345 13.457031 11.487101 13.457031 11.738281 C 13.457031 11.862831 13.428094 12.024383 13.371094 12.220703 C 13.316204 12.414863 13.215953 12.593133 13.070312 12.757812 C 12.926783 12.922423 12.746874 13.055097 12.527344 13.154297 C 12.309944 13.251447 12.044812 13.300781 11.732422 13.300781 C 11.232152 13.300781 10.827544 13.145934 10.521484 12.839844 C 10.215414 12.533814 10.0625 12.134585 10.0625 11.640625 C 10.0625 11.142485 10.227361 10.743109 10.556641 10.443359 C 10.885921 10.141549 11.288595 9.9902344 11.765625 9.9902344 z M 11.765625 10.681641 C 11.503895 10.681641 11.286361 10.771762 11.113281 10.951172 C 10.940151 11.128482 10.855469 11.36285 10.855469 11.65625 C 10.855469 11.94967 10.938709 12.185971 11.105469 12.363281 C 11.274329 12.538411 11.484824 12.626953 11.740234 12.626953 C 11.923874 12.626953 12.086939 12.580741 12.230469 12.494141 C 12.376119 12.407631 12.486794 12.294077 12.558594 12.148438 C 12.630354 12.002787 12.664062 11.846311 12.664062 11.681641 C 12.664062 11.394581 12.58948 11.156727 12.4375 10.966797 C 12.28763 10.776757 12.063255 10.681641 11.765625 10.681641 z M 16.382812 12.214844 C 16.526352 12.214844 16.646894 12.263924 16.746094 12.365234 C 16.847444 12.466554 16.898438 12.588892 16.898438 12.732422 C 16.898438 12.873842 16.847404 12.996346 16.746094 13.097656 C 16.644774 13.199006 16.524243 13.25 16.382812 13.25 C 16.239283 13.25 16.116945 13.198809 16.015625 13.099609 C 15.914275 12.998289 15.863281 12.875952 15.863281 12.732422 C 15.863281 12.588882 15.912519 12.466544 16.011719 12.365234 C 16.113049 12.263924 16.237172 12.214844 16.382812 12.214844 z "
     />
</svg>
